svgs/google_chrome_beta.svg

<svg width="24" height="24" viewBox="0 0 24 24" fill="none" xmlns="http://www.w3.org/2000/svg">
<path d="M6.87871 10.6332C7.18066 9.50328 7.8474 8.50457 8.77549 7.79168C9.70302 7.07934 10.8396 6.69287 12.0096 6.69176H20.4787C19.6262 5.32881 18.4579 4.19163 17.0716 3.37698C15.6859 2.56233 14.1233 2.09467 12.5179 2.01292C10.9125 1.93118 9.31099 2.23813 7.84907 2.90821C6.38769 3.57772 5.10927 4.59034 4.12335 5.85986L6.87871 10.6332Z" fill="#FFF1C0"/>
<path d="M12.4362 18.42C12.3429 18.4667 12.2312 18.49 12.1012 18.49C11.9379 18.49 11.8062 18.4533 11.7062 18.38C11.6062 18.3033 11.5329 18.2017 11.4862 18.075C11.4429 17.945 11.4212 17.7967 11.4212 17.63V16.26C11.4212 16.1267 11.4345 16.0067 11.4612 15.9C11.4912 15.7933 11.5479 15.71 11.6312 15.65C11.7145 15.5867 11.8379 15.555 12.0012 15.555C12.1912 15.555 12.3262 15.6067 12.4062 15.71C12.4862 15.81 12.5262 15.94 12.5262 16.1C12.5262 16.2067 12.5095 16.3 12.4762 16.38C12.4429 16.46 12.3862 16.5217 12.3062 16.565C12.2262 16.605 12.1162 16.625 11.9762 16.625H11.7012V17.22H12.0912C12.3079 17.22 12.4679 17.275 12.5712 17.385C12.6745 17.495 12.7262 17.645 12.7262 17.835C12.7262 17.985 12.7012 18.1083 12.6512 18.205C12.6012 18.3017 12.5295 18.3733 12.4362 18.42Z" fill="#FFF1C0"/>
<path fill-rule="evenodd" clip-rule="evenodd" d="M10.6363 21.8998L10.6289 21.9127C9.03628 21.693 7.51986 21.0919 6.20863 20.161C4.8974 19.2302 3.83029 17.9968 3.09793 16.5649C2.61325 15.6183 2.2847 14.6037 2.12096 13.56H21.899C21.6827 14.9425 21.1776 16.2669 20.4147 17.4457C19.5411 18.7948 18.355 19.9131 16.9576 20.706C15.5596 21.499 13.9909 21.9427 12.3849 22L12.3929 21.9862C12.2657 21.991 12.138 21.9935 12.0096 21.9935C11.5437 21.9935 11.0853 21.9616 10.6363 21.8998ZM10.8112 16.265V20.045H11.4262V19.01L11.3712 18.755H11.3912C11.4112 18.7817 11.4579 18.82 11.5312 18.87C11.6046 18.9167 11.6996 18.9567 11.8162 18.99C11.9362 19.0267 12.0729 19.045 12.2262 19.045C12.4262 19.045 12.6112 18.9967 12.7812 18.9C12.9512 18.8 13.0879 18.655 13.1912 18.465C13.2979 18.275 13.3512 18.0433 13.3512 17.77C13.3512 17.5933 13.3162 17.4417 13.2462 17.315C13.1796 17.1883 13.0946 17.0883 12.9912 17.015C12.8912 16.9417 12.7946 16.8967 12.7012 16.88V16.86C12.7712 16.8333 12.8396 16.785 12.9062 16.715C12.9762 16.6417 13.0346 16.5467 13.0812 16.43C13.1279 16.31 13.1512 16.1717 13.1512 16.015C13.1512 15.8917 13.1279 15.77 13.0812 15.65C13.0379 15.53 12.9679 15.4217 12.8712 15.325C12.7779 15.225 12.6596 15.1467 12.5162 15.09C12.3729 15.03 12.2012 15 12.0012 15C11.7312 15 11.5079 15.0483 11.3312 15.145C11.1546 15.2417 11.0229 15.3833 10.9362 15.57C10.8529 15.7567 10.8112 15.9883 10.8112 16.265Z" fill="#FFF1C0"/>
<path d="M2 12L2.00024 11.9389C2.01191 10.3307 2.41173 8.74924 3.16522 7.32846L5.86192 12H2Z" fill="#FFF1C0"/>
<path d="M8.25611 12C8.26125 9.93133 9.93974 8.25601 12.0096 8.25601C14.0795 8.25601 15.758 9.93133 15.7631 12H8.25611Z" fill="#FFF1C0"/>
<path d="M22.0191 12C22.0172 10.7191 21.7688 9.44783 21.2844 8.25601H15.7759C16.6017 9.0829 17.1316 10.16 17.2829 11.3194C17.3123 11.5461 17.327 11.7734 17.3272 12H22.0191Z" fill="#FFF1C0"/>
</svg>

<svg xmlns="http://www.w3.org/2000/svg" width="24" height="24" fill="none" viewBox="0 0 24 24"><path fill="#FFF1C0" d="M6.879 10.633a5.313 5.313 0 0 1 5.13-3.941h8.47A9.986 9.986 0 0 0 4.123 5.86l2.756 4.773m5.557 7.787a.741.741 0 0 1-.335.07.653.653 0 0 1-.395-.11.664.664 0 0 1-.22-.305 1.406 1.406 0 0 1-.065-.445v-1.37c0-.133.014-.253.04-.36a.446.446 0 0 1 .17-.25c.083-.063.207-.095.37-.095.19 0 .325.052.405.155.08.1.12.23.12.39a.73.73 0 0 1-.05.28.366.366 0 0 1-.17.185c-.08.04-.19.06-.33.06h-.275v.595h.39c.217 0 .377.055.48.165.104.11.155.26.155.45 0 .15-.025.273-.075.37a.48.48 0 0 1-.215.215"/><path fill="#FFF1C0" fill-rule="evenodd" d="m10.636 21.9-.007.013A9.996 9.996 0 0 1 2.12 13.56h19.778a9.997 9.997 0 0 1-4.941 7.146A9.99 9.99 0 0 1 12.385 22l.008-.014a10.16 10.16 0 0 1-1.757-.086m.175-5.635v3.78h.615V19.01l-.055-.255h.02c.02.027.067.065.14.115a1.402 1.402 0 0 0 .695.175c.2 0 .385-.048.555-.145a1.1 1.1 0 0 0 .41-.435 1.4 1.4 0 0 0 .16-.695.927.927 0 0 0-.105-.455.836.836 0 0 0-.255-.3.709.709 0 0 0-.29-.135v-.02a.568.568 0 0 0 .205-.145.88.88 0 0 0 .175-.285c.047-.12.07-.258.07-.415a.999.999 0 0 0-.28-.69.959.959 0 0 0-.355-.235 1.33 1.33 0 0 0-.515-.09c-.27 0-.493.048-.67.145a.907.907 0 0 0-.395.425 1.706 1.706 0 0 0-.125.695" clip-rule="evenodd"/><path fill="#FFF1C0" d="M2 12v-.061a9.995 9.995 0 0 1 1.165-4.61L5.862 12zm6.256 0a3.753 3.753 0 0 1 7.507 0zm13.764 0a9.982 9.982 0 0 0-.736-3.744h-5.508A5.307 5.307 0 0 1 17.327 12h4.692"/></svg>
